X:45
T: Little Drummers
S: "Roche Collection of Traditional Irish Music" [I/44/102]
L: 1/8
M: 6/8
R: jig
K: Edor
d/c/ | BEE BEE | FDD DFA | BEE BEE | ABc dcd |
BEE BEE | FDD DFA | ABc d2F | FEE E2 :|
e | eBB eBB | ABc dcd | eBB eBB | Abc d2e |
eBB eBB | ABc dcd | AFA d2F | FEE E2 :|
